X: 10812
T: CAULD KAIL IN ABERDEEN
Q: "Andante"
%R: strathspey
B: "Edinburgh Repository of Music" v.1 p.81 #2
F: http://digital.nls.uk/special-collections-of-printed-music/pageturner.cfm?id=87776133
Z: 2015 John Chambers <jc:trillian.mit.edu>
M: 2/4
L: 1/16
K: G
G2 |\
B3dg2e2 | d2B2 A2 zG | B3d efge | d4 G2 :|\
|: d2 |\
g3ab2g2 | a2f2e2d2 | g3ab2g2 | a3f d2z2 |\
g3ab2g2 | c'3a Hf2 a/g/f/e/ | d3B g3e | d4 G2 :|

%%sep 2 1 500
%%sep 1 1 500

